X:5
T:5. Praise Ballad  —  3rds CW, 135 arpeggio + rest
C:Fingering 1 2 3
M:4/4
L:1/4
Q:1/4=70
K:C clef=bass
"C""_8" C, E, G, z | "Em""_8" E, G, B, z | "G""_8" G, B, D z | "B°""_8" B, D F z | "Dm""_8" D, F, A, z | "F""_8" F, A, C z | "Am""_8" A, C E z | "C""_8" C, E, G, z |]

